assets/svg/yandex_smarthome.svg

<svg xmlns="http://www.w3.org/2000/svg" width="50" height="50" fill="none" viewBox="0 0 50 50"><defs><linearGradient id="a" x1="0" x2="50" y1="0" y2="0" gradientUnits="userSpaceOnUse"><stop offset=".093" stop-color="#cf3bff"/><stop offset="1" stop-color="#4a26ff"/></linearGradient><linearGradient id="b" x1="12.846" x2="36.952" y1="13.333" y2="13.333" gradientUnits="userSpaceOnUse"><stop stop-color="#cf3bff"/><stop offset="1" stop-color="#4a26ff"/></linearGradient></defs><path fill="url(#a)" d="M0 10v30a9.9 9.9 0 0 0 .76 3.82c.25.61.56 1.18.92 1.73.37.55.78 1.05 1.24 1.52.47.46.97.87 1.52 1.24.55.36 1.12.67 1.73.92.6.26 1.23.44 1.87.57.65.13 1.3.2 1.96.2h30c.65 0 1.3-.07 1.95-.2.64-.13 1.27-.31 1.87-.57a10.04 10.04 0 0 0 3.25-2.16c.46-.47.87-.97 1.24-1.52.36-.55.67-1.12.92-1.73.26-.6.44-1.23.57-1.87.13-.65.2-1.3.2-1.95V10c0-.66-.07-1.31-.2-1.96-.13-.64-.31-1.27-.57-1.87-.25-.61-.56-1.18-.92-1.73-.37-.55-.78-1.05-1.24-1.52-.47-.46-.97-.87-1.52-1.24-.55-.36-1.12-.67-1.73-.92A9.913 9.913 0 0 0 40 0H9.99a9.9 9.9 0 0 0-3.82.76c-.61.25-1.18.56-1.73.92-.55.37-1.05.78-1.52 1.24-.46.47-.87.97-1.24 1.52-.36.55-.67 1.12-.92 1.73C.5 6.77.32 7.4.19 8.04.06 8.69 0 9.34 0 10" style="mix-blend-mode:normal"/><path fill="#fff" d="M11.78 40.02c-1.89-.3-3.5-1.74-4.01-3.61-.15-.55-.17-1.21-.17-6.8 0-6.13 0-6.21.22-7.04.34-1.36.65-1.85 2.06-3.26.69-.68 2.15-2.01 3.25-2.95 1.85-1.57 2.71-2.31 6.22-5.39 1.33-1.16 2.31-1.93 3.2-2.5 1.01-.64 2.69-.78 4.13-.34.94.29 2.57 1.58 7.87 6.22 5.79 5.07 6.55 5.82 7.19 7.09.58 1.13.57 1.03.61 7.85.04 5.5.02 6.32-.11 6.84-.48 1.89-1.84 3.33-3.61 3.83-.48.13-26.02.19-26.85.06"/><path d="M7.77 36.41c-.15-.55-.17-1.21-.17-6.8 0-6.13 0-6.21.22-7.04.34-1.36.65-1.85 2.06-3.26.69-.68 2.15-2.01 3.25-2.95 1.85-1.57 2.71-2.31 6.22-5.39 1.33-1.16 2.31-1.93 3.2-2.5 1.01-.64 2.69-.78 4.13-.34.94.29 2.57 1.58 7.87 6.22 5.79 5.07 6.55 5.82 7.19 7.09.58 1.13.57 1.03.61 7.85.04 5.5.02 6.32-.11 6.84-.48 1.89-1.84 3.33-3.61 3.83-.48.13-26.02.19-26.85.06-1.89-.3-3.5-1.74-4.01-3.61"/><path fill="url(#b)" d="M24.89 13.33a3.98 3.98 0 0 0-3.98 3.99c0 1.67 1.03 3.1 2.49 3.69v8.85l-2.91-2.91a3.986 3.986 0 1 0-7.65-1.56c0 2.2 1.78 3.99 3.99 3.99.55 0 1.07-.11 1.55-.32l5.02 5.02v6.06h2.99v-6.06l5.02-5.02c.47.21 1 .32 1.55.32 2.2 0 3.99-1.79 3.99-3.99s-1.79-3.99-3.99-3.99-3.98 1.79-3.98 3.99c0 .55.11 1.08.31 1.56l-2.9 2.91v-8.85a3.98 3.98 0 0 0 2.49-3.69c0-2.21-1.79-3.99-3.99-3.99m0 2.39c.88 0 1.6.71 1.6 1.6a1.596 1.596 0 1 1-1.6-1.6m-8.06 8.08a1.596 1.596 0 0 1 0 3.19c-.89 0-1.6-.72-1.6-1.6s.71-1.59 1.6-1.59m16.13 0c.88 0 1.6.71 1.6 1.59s-.72 1.6-1.6 1.6a1.596 1.596 0 0 1 0-3.19"/></svg>

<svg width="50.000000" height="50.000000" viewBox="0 0 50 50" fill="none" xmlns="http://www.w3.org/2000/svg" xmlns:xlink="http://www.w3.org/1999/xlink">
	<desc>
			Created with Pixso.
	</desc>
	<defs>
		<linearGradient x1="0.000000" y1="0.000000" x2="49.999996" y2="0.000000" id="paint_linear_73_29_0" gradientUnits="userSpaceOnUse">
			<stop offset="0.093248" stop-color="#CF3BFF"/>
			<stop offset="1.000000" stop-color="#4A26FF"/>
		</linearGradient>
		<linearGradient x1="12.845551" y1="13.332887" x2="36.952251" y2="13.332887" id="paint_linear_73_31_0" gradientUnits="userSpaceOnUse">
			<stop stop-color="#CF3BFF"/>
			<stop offset="1.000000" stop-color="#4A26FF"/>
		</linearGradient>
	</defs>
	<g style="mix-blend-mode:normal">
		<path id="path251" d="M0 10L0 40C0 40.65 0.06 41.3 0.19 41.95C0.32 42.59 0.5 43.22 0.76 43.82C1.01 44.43 1.32 45 1.68 45.55C2.05 46.1 2.46 46.6 2.92 47.07C3.39 47.53 3.89 47.94 4.44 48.31C4.99 48.67 5.56 48.98 6.17 49.23C6.77 49.49 7.4 49.67 8.04 49.8C8.69 49.93 9.34 50 10 50L40 50C40.65 50 41.3 49.93 41.95 49.8C42.59 49.67 43.22 49.49 43.82 49.23C44.43 48.98 45 48.67 45.55 48.31C46.1 47.95 46.6 47.53 47.07 47.07C47.53 46.6 47.94 46.1 48.31 45.55C48.67 45 48.98 44.43 49.23 43.82C49.49 43.22 49.67 42.59 49.8 41.95C49.93 41.3 50 40.65 50 40L50 10C50 9.34 49.93 8.69 49.8 8.04C49.67 7.4 49.49 6.77 49.23 6.17C48.98 5.56 48.67 4.99 48.31 4.44C47.94 3.89 47.53 3.39 47.07 2.92C46.6 2.46 46.1 2.05 45.55 1.68C45 1.32 44.43 1.01 43.82 0.76C43.22 0.5 42.59 0.32 41.95 0.19C41.3 0.06 40.65 0 40 0L9.99 0C9.34 0 8.69 0.06 8.04 0.19C7.4 0.32 6.77 0.5 6.17 0.76C5.56 1.01 4.99 1.32 4.44 1.68C3.89 2.05 3.39 2.46 2.92 2.92C2.46 3.39 2.05 3.89 1.68 4.44C1.32 4.99 1.01 5.56 0.76 6.17C0.5 6.77 0.32 7.4 0.19 8.04C0.06 8.69 0 9.34 0 10Z" fill="url(#paint_linear_73_29_0)" fill-opacity="1.000000" fill-rule="nonzero"/>
	</g>
	<path id="path943" d="M11.78 40.02C9.89 39.72 8.28 38.28 7.77 36.41C7.62 35.86 7.6 35.2 7.6 29.61C7.6 23.48 7.6 23.4 7.82 22.57C8.16 21.21 8.47 20.72 9.88 19.31C10.57 18.63 12.03 17.3 13.13 16.36C14.98 14.79 15.84 14.05 19.35 10.97C20.68 9.81 21.66 9.04 22.55 8.47C23.56 7.83 25.24 7.69 26.68 8.13C27.62 8.42 29.25 9.71 34.55 14.35C40.34 19.42 41.1 20.17 41.74 21.44C42.32 22.57 42.31 22.47 42.35 29.29C42.39 34.79 42.37 35.61 42.24 36.13C41.76 38.02 40.4 39.46 38.63 39.96C38.15 40.09 12.61 40.15 11.78 40.02Z" fill="#FFFFFF" fill-opacity="1.000000" fill-rule="nonzero"/>
	<path id="path943" d="M7.77 36.41C7.62 35.86 7.6 35.2 7.6 29.61C7.6 23.48 7.6 23.4 7.82 22.57C8.16 21.21 8.47 20.72 9.88 19.31C10.57 18.63 12.03 17.3 13.13 16.36C14.98 14.79 15.84 14.05 19.35 10.97C20.68 9.81 21.66 9.04 22.55 8.47C23.56 7.83 25.24 7.69 26.68 8.13C27.62 8.42 29.25 9.71 34.55 14.35C40.34 19.42 41.1 20.17 41.74 21.44C42.32 22.57 42.31 22.47 42.35 29.29C42.39 34.79 42.37 35.61 42.24 36.13C41.76 38.02 40.4 39.46 38.63 39.96C38.15 40.09 12.61 40.15 11.78 40.02C9.89 39.72 8.28 38.28 7.77 36.41Z" stroke="#000000" stroke-opacity="0" stroke-width="1.303623"/>
	<path id="path259" d="M24.89 13.33C22.69 13.33 20.91 15.11 20.91 17.32C20.91 18.99 21.94 20.42 23.4 21.01L23.4 29.86L20.49 26.95C20.7 26.47 20.81 25.94 20.81 25.39C20.81 23.19 19.03 21.4 16.83 21.4C14.62 21.4 12.84 23.19 12.84 25.39C12.84 27.59 14.62 29.38 16.83 29.38C17.38 29.38 17.9 29.27 18.38 29.06L23.4 34.08L23.4 40.14L26.39 40.14L26.39 34.08L31.41 29.06C31.88 29.27 32.41 29.38 32.96 29.38C35.16 29.38 36.95 27.59 36.95 25.39C36.95 23.19 35.16 21.4 32.96 21.4C30.76 21.4 28.98 23.19 28.98 25.39C28.98 25.94 29.09 26.47 29.29 26.95L26.39 29.86L26.39 21.01C27.85 20.42 28.88 18.99 28.88 17.32C28.88 15.11 27.09 13.33 24.89 13.33ZM24.89 15.72C25.77 15.72 26.49 16.43 26.49 17.32C26.49 18.2 25.77 18.91 24.89 18.91C24.01 18.91 23.3 18.2 23.3 17.32C23.3 16.43 24.01 15.72 24.89 15.72ZM16.83 23.8C17.71 23.8 18.42 24.51 18.42 25.39C18.42 26.27 17.71 26.99 16.83 26.99C15.94 26.99 15.23 26.27 15.23 25.39C15.23 24.51 15.94 23.8 16.83 23.8ZM32.96 23.8C33.84 23.8 34.56 24.51 34.56 25.39C34.56 26.27 33.84 26.99 32.96 26.99C32.08 26.99 31.37 26.27 31.37 25.39C31.37 24.51 32.08 23.8 32.96 23.8Z" fill="url(#paint_linear_73_31_0)" fill-opacity="1.000000" fill-rule="nonzero"/>
</svg>
